X:1
T:The Silver Swan, Rag
T:Scott Joplin
T:The Silver Swan, Rag
T:Ragtime Two-Step
T:Public Domain
T:Public Domain
T:Public Domain
T:Public Domain
T:Public Domain
T:Public Domain
T:Public Domain
T:Public Domain
C:Scott Joplin
Z:Public Domain
%%score { ( 1 3 ) | ( 2 4 ) }
L:1/8
Q:1/4=90
M:2/4
K:Bb
V:1 treble nm="Piano"
V:3 treble 
V:2 bass 
V:4 bass 
V:1
"^Introduction" [B,B]/[Cc]/[Dd]/[Ff]/ [B,B] z | [Bb]/[cc']/[dd']/[ff']/ [Bb] z | %2
 [Bb]/[cc']/[dd'] [GBegbe']2 | [^FAd^fad'] z [E=FAe=fae'=f'=f''] z || %4
"^A Strain" [FBdff']2- [FBdff']/[Ff]/[Bb]/[dd']/ | [GB^cgg']2 [FBdff']2 | %6
 [dfbd'd'']2- [dfbd'd'']/[ff']/[bb']/[d'd'']/ | [eae'e'']2 [dbd'd'']2 | %8
 [cegc'c''][Begbb']- [Begbb']/[^f^f']/[gg']/[^c^c']/ | %9
 [dd']/[Ff]/[Gg]/[Bb]/- [Bb]/[cc']/[dd']/[ff']/ | %10
 [cegc'c''][Begbb']- [Begbb']/[^f^f']/[gg']/[ee']/ | [dd']2 [cc'][FAeff'] | %12
 [FBdff']2- [FBdff']/[Ff]/[Bb]/[dd']/ | [GB^cgg']2 [FBdff']2 | %14
 [dfbd'd'']2- [dfbd'd'']/[ff']/[bb']/[d'd'']/ | [eae'e'']2 [dbd'd'']2 | %16
 [cegc'c''][Begbb']- [Begbb']/[^f^f']/[gg']/[^c^c']/ | %17
 [dd']/[Ff]/[Gg]/[Bb]/- [Bb]/[cc']/[dd']/[ff']/ | [=EBb]2- [EBb] [_EAcc'] | %19
 [DBb][Ff]/[Ff]/ [Ff][Ff] ||"^A Strain - Repeat" [FBdff']2- [FBdff']/[Ff]/[Bb]/[dd']/ | %21
 [GB^cgg']2 [FBdff']2 | [dfbd'd'']2- [dfbd'd'']/[ff']/[bb']/[d'd'']/ | [eae'e'']2 [dbd'd'']2 | %24
 [cegc'c''][Begbb']- [Begbb']/[^f^f']/[gg']/[^c^c']/ | %25
 [dd']/[Ff]/[Gg]/[Bb]/- [Bb]/[cc']/[dd']/[ff']/ | %26
 [cegc'c''][Begbb']- [Begbb']/[^f^f']/[gg']/[ee']/ | [dd']2 [cc'][FAeff'] | %28
 [FBdff']2- [FBdff']/[Ff]/[Bb]/[dd']/ | [GB^cgg']2 [FBdff']2 | %30
 [dfbd'd'']2- [dfbd'd'']/[ff']/[bb']/[d'd'']/ | [eae'e'']2 [dbd'd'']2 | %32
 [cegc'c''][Begbb']- [Begbb']/[^f^f']/[gg']/[^c^c']/ | %33
 [dd']/[Ff]/[Gg]/[Bb]/- [Bb]/[cc']/[dd']/[ff']/ | [=EBb]2- [EBb] [_EAcc'] | [DBb]2- [DBb] [Dd] || %36
"^B Strain" [Bb]/[Aa]/[Bb]/[Gg]/- [Gg]/[Aa]/[Bb]/[dd']/ | %37
 [^c^c']/[=e=e']/[gg']/[Gg]/ [Aa]/[=c=c']/[_e_e']/[^f^f']/ | %38
 [gg']/[dd']/[Bb]/[Gg]/- [Gg]/[Bb]/[Aa]/[Gg]/ | [A,D^F^f]2 [DFdfd']2 | %40
 [GBgb]/[Aa]/[Bb]/[Gg]/- [Gg]/[Aa]/[Bb]/[dd']/- | %41
 [dd']/[dd']/[ff']/[^g^g']/- [gg']/[dd']/[ff']/[^g^g']/ | %42
 [aa']/[ff']/[Aa]/[dd']/- [dd']/[cc']/[Bb]/[Gg]/ | [Ff]2 [CE]2 | %44
 [Bb]/[Aa]/[Bb]/[Gg]/- [Gg]/[Aa]/[Bb]/[dd']/ | %45
 [^c^c']/[=e=e']/[gg']/[Gg]/ [Aa]/[=c=c']/[_e_e']/[^f^f']/ | %46
 [gg']/[dd']/[Bb]/[Gg]/- [Gg]/[Aa]/[Bb]/[dd']/ | [Gcegc'e']2- [Gcegc'e'] [Gg] | %48
 [cc'][ee']/[aa']/- [aa']/[ee']/[cc']/[eg]/ | [Bb][dd']/[gg']/- [gg']/[dd']/[Bb]/[Gg]/ | %50
 [^F^f][Aa]/[dd']/- [dd']/[cc']/[Bb]/[Aa]/ | [Gg]2 [D^FAd^fad'^f'd''][Ddd'] || %52
"^B Strain - Repeat" [Bdgbb']/[Aaa']/[Bbb']/[GBdgg']/- [GBdgg']/[Aaa']/[Bbb']/[dd'd'']/ | %53
 [^c=egb^c'^c'']/[=e=e'=e'']/[gg'g'']/[Ggg']/ [A=c_e^faa']/[=c=c'=c'']/[_e_e'_e'']/[^f^f'^f'']/ | %54
 [gbd'g'g'']/[dd'd'']/[Bbb']/[GBdgg']/- [GBdgg']/[Bbb']/[Aaa']/[Ggg']/ | %55
 [^F,A,D^FAd^f^f']2 [F,A,Ddfad'd'']2 | %56
 [Bdgbb']/[Aaa']/[Bbb']/[GBdgg']/- [GBdgg']/[Aaa']/[Bbb']/[dgbd'd'']/- | %57
 [dgbd'd'']/[dd'd'']/[ff'f'']/[^g=bd'^g'^g'']/- [gbd'g'g'']/[dd'd'']/[ff'f'']/[gg'g'']/ | %58
 [ac'f'a'a'']/[ff'f'']/[Aaa']/[dfad'd'']/- [dfad'd'']/[cc'c'']/[Bbb']/[Ggg']/ | [FAcff']2 [CE]2 | %60
 [Bdgbb']/[Aaa']/[Bbb']/[GBdgg']/- [GBdgg']/[Aaa']/[Bbb']/[dd'd'']/ | %61
 [^c=egb^c'^c'']/[e=e'=e'']/[gg'g'']/[Ggg']/ [A=c_e^faa']/[=c=c'=c'']/[_e_e'_e'']/[^f^f'^f'']/ | %62
 [gbd'g'g'']/[dd'd'']/[Bbb']/[GBdgg']/- [GBdgg']/[Aaa']/[Bbb']/[dd'd'']/ | %63
 [Gcegc'e'e'']2- [Gcegc'e'e''] [Ggg'] | %64
 [cegc'c''][ee'e'']/[Aceac'e'a'a'']/- [Aceac'e'a'a'']/[ee'e'']/[cc'c'']/[eg]/ | %65
 [Bdgbb'][dd'd'']/[GBdgbd'g'g'']/- [GBdgbd'g'g'']/[dd'd'']/[Bbb']/[Ggg']/ | %66
 [^FAd^f^f'][Aaa']/[dfad'd'']/- [dfad'd'']/[cc'c'']/[Bbb']/[Aaa']/ | [GBdgg']2 [Aa][ff'] || %68
"^A Strain - Second Repeat" [FBdff']2- [FBdff']/[Ff]/[Bb]/[dd']/ | [GB^cgg']2 [FBdff']2 | %70
 [dfbd'd'']2- [dfbd'd'']/[ff']/[bb']/[d'd'']/ | [eae'e'']2 [dbd'd'']2 | %72
 [cegc'c''][Begbb']- [Begbb']/[^f^f']/[gg']/[^c^c']/ | %73
 [dfbd']/[Ff]/[Gg]/[Bdfb]/- [Bdfb]/[cc']/[dd']/[ff']/ | %74
 [cegc'c''][Begbb']- [Begbb']/[^f^f']/[gg']/[ee']/ | [dfbd']2 [cfac'][FAeff'] | %76
 [FBdff']2- [FBdff']/[Ff]/[Bb]/[dd']/ | [GB^cgg']2 [FBdff']2 | %78
 [dfbd'd'']2- [dfbd'd'']/[ff']/[bb']/[d'd'']/ | [eae'e'']2 [dbd'd'']2 | %80
 [cegc'c''][Begbb']- [Begbb']/[^f^f']/[gg']/[^c^c']/ | %81
 [dfbd']/[Ff]/[Gg]/[Bb]/- [Bb]/[cc']/[dd']/[ff']/ | [=EBb]2 z/ [_ea]/[_EAcc']/[ea]/ | %83
 [DBdfb]2 [B,DFBdfbd'b'] z ||[K:Eb]"^C Strain" [GBeg]2- [GBeg]/[Bb]/[ee']/[gg']/ | %85
 [bb']/[=a=a']/[bb']/[_a_a']/ [gg']/[^f^f']/[gg']/[ee']/ | [ceac']2- [ceac']/[dd']/[ee']/[ff']/ | %87
 [Begb]>[cc'] [ABdfa]>[Bb] || [GBeg]2- [GBeg]/[Bb]/[ee']/[gg']/ | %89
 [bb']/[=a=a']/[bb']/[_a_a']/ [gg']/[^f^f']/[gg']/[ee']/ | %90
 [dgbd']2- [dgbd']/[c'c'']/[bb']/[=a=a']/ | [gg'] z [G=Bdg=bd'g'g''] z | %92
 z/ [ee']/[cc']/[cegc']/- [cegc']/[Bb]/[Gg]/[ce]/- | %93
 [ce]/[ee']/[cc']/[cegc']/- [cegc']/[Bb]/[Gg]/[ce]/- | %94
 [ce]/[Gg]/[Ff]/[FAcf]/- [FAcf]/[Ee]/[Cc]/[FA]/- | [FA]/[Gg]/[Ff]/[FAcf]/- [FAcf]/[Ee]/[Cc]/[FA]/ | %96
 [Dd]/[Acc'][Dd]/ [ABb][Dd]/[Acc']/- | [Acc']/[Dd]/[DABb] [DAcc'][DABb] | %98
 [EAe]/[Gcc'][Ee]/ [GBb][Ee]/[Gcc']/- | [Gcc']/[Ee]/[GBb] [DAcc'][DBb] || %100
"^C Strain - Repeat" [GBeg]2- [GBeg]/[B,Bb]/[ee']/[Ggg']/ | %101
 [Bbb']/[=A=a=a']/[Bbb']/[_A_a_a']/ [Ggg']/[^F^f^f']/[Ggg']/[Eee']/ | %102
 [Cc-e-a-c'-]2 [ceac']/[Ddd']/[Eee']/[Fff']/ | [B,GBgb]>[Ccc'] [FAfa]>[B,Bb] | %104
 [GBeg]2- [GBeg]/[B,Bb]/[ee']/[Ggg']/ | %105
 [Bbb']/[=A=a=a']/[Bbb']/[_A_a_a']/ [Ggg']/[^F^f^f']/[Ggg']/[Eee']/ | %106
 [Ddgbd']2- [Ddgbd']/[cc'c'']/[Bbb']/[=A=a=a']/ | [GBdgg']2 [G=Bdg=bd'g'g''] z | %108
 z/ [ee']/[cc']/[cegc']/- [cegc']/[Bb]/[Gg]/[ce]/- | %109
 [ce]/[ee']/[cc']/[cegc']/- [cegc']/[Bb]/[Gg]/[ce]/- | %110
 [ce]/[Gg]/[Ff]/[FAcf]/- [FAcf]/[Ee]/[Cc]/[FA]/- | [FA]/[Gg]/[Ff]/[FAcf]/- [FAcf]/[Ee]/[Cc]/[FA]/ | %112
 [Dd]/[Acc'][Dd]/ [ABb][Dd]/[Acc']/- | [Acc']/[Dd]/[DABb] [DAcc'][DABb] | %114
 [EGBe]2- [EGBe]/[Ee]/[Gg]/[Bb]/ | [Eee'] z [G,B,EGBegbe'g'e''] z || %116
[K:Bb]"^Introduction - Repeat" [B,B]/[Cc]/[Dd]/[Ff]/ [B,B] z | [Bb]/[cc']/[dd']/[ff']/ [Bb] z | %118
 [Bb]/[cc']/[dd'] [GBegbe']2 | [^FAd^fad'] z [E=FAe=fae'=f'=f''] z || %120
"^A Strain - Third Repeat" [FBdff']2- [FBdff']/[Ff]/[Bb]/[dd']/ | [GB^cgg']2 [FBdff']2 | %122
 [dfbd'd'']2- [dfbd'd'']/[ff']/[bb']/[d'd'']/ | [eae'e'']2 [dbd'd'']2 | %124
 [cegc'c''][Begbb']- [Begbb']/[^f^f']/[gg']/[^c^c']/ | %125
 [dd']/[Ff]/[Gg]/[Bb]/- [Bb]/[cc']/[dd']/[ff']/ | %126
 [cegc'c''][Begbb']- [Begbb']/[^f^f']/[gg']/[ee']/ | [dd']2 [cc'][FAeff'] | %128
 [FBdff']2- [FBdff']/[Ff]/[Bb]/[dd']/ | [GB^cgg']2 [FBdff']2 | %130
 [dfbd'd'']2- [dfbd'd'']/[ff']/[bb']/[d'd'']/ | [eae'e'']2 [dbd'd'']2 | %132
 [cegc'c''][Begbb']- [Begbb']/[^f^f']/[gg']/[^c^c']/ | %133
 [dd']/[Ff]/[Gg]/[Bb]/- [Bb]/[cc']/[dd']/[ff']/ | [=EBb]2- [EBb] [_EAcc'] | %135
 [DBb]2 [DFBdfbd'f'b'b''] z |] %136
V:2
 B,,/C,/D,/F,/ B,, z | B,/C/D/F/ B, z | [G,,G,]/[A,,A,]/[B,,B,] [C,C][^C,^C] | %3
 [D,D] z [C,,C,F,A,C]F,, || B,,[F,B,D] F,,[F,B,D] | B,,[=E,G,B,^C] B,,[F,B,D] | %6
 B,,[F,B,D] [F,,F,][F,B,D] | [^F,,^F,][A,CE] [G,,G,][G,B,D] | [E,,E,][G,B,E] [E,,E,][G,B,E] | %9
 B,,[F,B,D] F,,[F,B,D] | [E,,E,][G,B,E] [E,,E,][G,B,E] | B,,[F,B,D] [F,A,E][F,,F,] | %12
 B,,[F,B,D] F,,[F,B,D] | B,,[=E,G,B,^C] B,,[F,B,D] | B,,[F,B,D] [F,,F,][F,B,D] | %15
 [^F,,^F,][A,CE] [G,,G,][G,B,D] | [E,,E,][G,B,E] [E,,E,][G,B,E] | B,,[F,B,D] [D,,D,][F,B,D] | %18
 [G,,G,][_G,,_G,] [F,,F,]2 | [B,,B,] z z2 || B,,[F,B,D] F,,[F,B,D] | B,,[=E,G,B,^C] B,,[F,B,D] | %22
 B,,[F,B,D] [F,,F,][F,B,D] | [^F,,^F,][A,CE] [G,,G,][G,B,D] | [E,,E,][G,B,E] [E,,E,][G,B,E] | %25
 B,,[F,B,D] F,,[F,B,D] | [E,,E,][G,B,E] [E,,E,][G,B,E] | B,,[F,B,D] [F,A,E][F,,F,] | %28
 B,,[F,B,D] F,,[F,B,D] | B,,[=E,G,B,^C] B,,[F,B,D] | B,,[F,B,D] [F,,F,][F,B,D] | %31
 [^F,,^F,][A,CE] [G,,G,][G,B,D] | [E,,E,][G,B,E] [E,,E,][G,B,E] | B,,[F,B,D] [D,,D,][F,B,D] | %34
 [G,,G,][_G,,_G,] [F,,F,]2 | [B,,B,][F,,F,] [B,,,B,,] z || [G,,G,][G,B,] [D,,D,][G,B,] | %37
 [G,,G,B,^C=E]2 [^F,,^F,A,=C_E]2 | [G,,G,][B,D] [E,,E,][G,A,^C] | %39
 [D,,D,][E,,E,]/[D,,D,]/- [D,,D,]/[C,,C,]/[B,,,B,,]/[A,,,A,,]/ | [G,,,G,,][G,B,D] [D,,D,][G,B,D] | %41
 =B,,[^G,DF] B,,[G,DF] | [C,,C,][A,CF] [C,,C,][B,C=E] | [F,,F,]2 [^F,,^F,]2 | %44
 [G,,G,][B,D] [D,,D,][B,D] | [G,,G,B,^C=E]2 [^F,,^F,A,=C_E]2 | [G,,G,][B,D] [D,,D,][B,D] | %47
 [C,,C,]3 z | [E,,E,][G,CE] [E,,E,][G,CE] | [D,,D,][G,B,D] [D,,D,][G,B,D] | %50
 [D,,D,][^F,A,C] [D,,D,][F,A,C] | [G,B,]2 [D,,,D,,D,^F,A,] z || [G,,G,][B,D] [D,,D,][B,D] | %53
 [G,,G,B,^C=E]2 [^F,,^F,A,=C_E]2 | [G,,G,][B,D] [E,,E,][G,A,^C] | %55
 [D,,D,][E,,E,]/[D,,D,]/- [D,,D,]/[C,,C,]/[B,,,B,,]/[A,,,A,,]/ | [G,,,G,,][G,B,D] [D,,D,][G,B,D] | %57
 [=B,,,=B,,][^G,DF] [B,,,B,,][G,DF] | [C,,C,][A,CF] [C,,C,][B,C=E] | [F,,F,]2 [^F,,^F,]2 | %60
 [G,,G,][B,D] [D,,D,][B,D] | [G,,G,B,^C=E]2 [^F,,^F,A,=C_E]2 | [G,,G,][B,D] [D,,D,][B,D] | %63
 [C,,C,]3 z | [E,,E,][G,CE] [E,,E,][G,CE] | [D,,D,][G,B,D] [D,,D,][G,B,D] | %66
 [D,,D,][^F,A,C] [D,,D,][F,A,C] | [G,B,]2 [F,CE]2 || B,,[F,B,D] F,,[F,B,D] | %69
 B,,[=E,G,B,^C] B,,[F,B,D] | B,,[F,B,D] [F,,F,][F,B,D] | [^F,,^F,][A,CE] [G,,G,][G,B,D] | %72
 [E,,E,][G,B,E] [E,,E,][G,B,E] | B,,[F,B,D] F,,[F,B,D] | [E,,E,][G,B,E] [E,,E,][G,B,E] | %75
 B,,[F,B,D] [F,A,E][F,,F,] | B,,[F,B,D] F,,[F,B,D] | B,,[=E,G,B,^C] B,,[F,B,D] | %78
 B,,[F,B,D] [F,,F,][F,B,D] | [^F,,^F,][A,CE] [G,,G,][G,B,D] | [E,,E,][G,B,E] [E,,E,][G,B,E] | %81
 B,,[F,B,D] [D,,D,][F,B,D] | [G,,G,][_G,,_G,] [F,,F,]2 | [B,,B,][F,,F,] [B,,,B,,] z || %84
[K:Eb] [E,,E,][G,B,E] B,,[G,B,E] | [G,,G,][G,B,E] [E,,E,][G,B,E] | A,,[A,CE] C,[A,CE] | %87
 [E,,E,][G,B,E] B,,[A,B,D] || [E,,E,][G,B,E] B,,[G,B,E] | [E,,E,][G,B,E] C,[G,CE] | %90
 [D,,D,][G,B,D] [D,,D,][^F,CD] | [G,B,D] z [G,,,G,,G,=B,D] z | C,[G,CE] G,,[G,CE] | %93
 C,[G,CE] G,,[G,CE] | F,,[A,C] A,,[F,A,] | F,,[A,C] A,,[F,A,] | [F,,F,][A,B,] B,,[A,B,] | %97
 [F,,F,][A,B,] B,,[A,B,] | [E,,E,][G,B,] B,,[G,B,] | [E,,E,][G,B,] B,,[A,B,] || %100
 [E,,E,G,][G,B,E] [B,,,B,,][G,B,E] | [G,,G,][G,B,E] [E,,E,][G,B,E] | [A,,,A,,][A,CE] [C,,C,][A,C] | %103
 [E,,E,][G,B,E] [B,,,B,,][A,B,D] | [E,,E,G,][E,G,B,] B,,[G,B,E] | [E,,E,][G,B,E] C,[G,CE] | %106
 [D,,D,][G,B,D] [D,,D,][^F,CD] | [G,B,D]2 [G,,,G,,D,G,=B,D] z | C,[G,CE] G,,[G,CE] | %109
 C,[G,CE] G,,[G,CE] | F,,[A,C] A,,[F,A,] | F,,[A,C] A,,[F,A,] | [F,,F,][A,B,] B,,[A,B,] | %113
 [F,,F,][A,B,] [B,,=A,][_A,B,] | [E,,E,G,B,][B,,B,] [C,C][B,,B,] | [E,,E,] z [E,,,E,,E,] z || %116
[K:Bb] B,,/C,/D,/F,/ B,, z | B,/C/D/F/ B, z | [G,,G,]/[A,,A,]/[B,,B,] [C,C][^C,^C] | %119
 [D,D] z [C,,C,F,A,C][F,,F,] || B,,[F,B,D] F,,[F,B,D] | B,,[=E,G,B,^C] B,,[F,B,D] | %122
 B,,[F,B,D] [F,,F,][F,B,D] | [^F,,^F,][A,CE] [G,,G,][G,B,D] | [E,,E,][G,B,E] [E,,E,][G,B,E] | %125
 B,,[F,B,D] F,,[F,B,D] | [E,,E,][G,B,E] [E,,E,][G,B,E] | B,,[F,B,D] [F,A,E][F,,F,] | %128
 B,,[F,B,D] F,,[F,B,D] | B,,[=E,G,B,^C] B,,[F,B,D] | B,,[F,B,D] [F,,F,][F,B,D] | %131
 [^F,,^F,][A,CE] [G,,G,][G,B,D] | [E,,E,][G,B,E] [E,,E,][G,B,E] | B,,[F,B,D] [D,,D,][F,B,D] | %134
 [G,,G,][_G,,_G,] [F,,F,]2 | [B,,B,][F,,F,] [B,,,B,,F,B,] z |] %136
V:3
 x4 | x4 | x4 | x4 || x4 | x4 | x4 | x4 | x4 | x4 | x4 | x4 | x4 | x4 | x4 | x4 | x4 | x4 | x4 | %19
 x4 || x4 | x4 | x4 | x4 | x4 | x4 | x4 | x4 | x4 | x4 | x4 | x4 | x4 | x4 | x4 | x4 || D4 | x4 | %38
 x4 | x4 | x4 | x4 | x4 | [A,C]2 [Aa]/[e^f]/[cc']/[ef]/ | x4 | x4 | x4 | x4 | x4 | x4 | x4 | x4 || %52
 x4 | x4 | x4 | x4 | x4 | x4 | x4 | [A,C]2 [Aaa']/[e^f]/[cc'c'']/[ef]/ | x4 | x4 | x4 | x4 | x4 | %65
 x4 | x4 | x4 || x4 | x4 | x4 | x4 | x4 | x4 | x4 | x4 | x4 | x4 | x4 | x4 | x4 | x4 | x4 | x4 || %84
[K:Eb] x4 | x4 | x4 | x4 || x4 | x4 | x4 | x4 | x4 | x4 | x4 | x4 | x4 | x4 | x4 | x4 || x4 | x4 | %102
 x4 | x4 | x4 | x4 | x4 | x4 | x4 | x4 | x4 | x4 | x4 | x4 | x4 | x4 ||[K:Bb] x4 | x4 | x4 | x4 || %120
 x4 | x4 | x4 | x4 | x4 | x4 | x4 | x4 | x4 | x4 | x4 | x4 | x4 | x4 | x4 | x4 |] %136
V:4
 x4 | x4 | x4 | x4 || x4 | x4 | x4 | x4 | x4 | x4 | x4 | x4 | x4 | x4 | x4 | x4 | x4 | x4 | x4 | %19
 x4 || x4 | x4 | x4 | x4 | x4 | x4 | x4 | x4 | x4 | x4 | x4 | x4 | x4 | x4 | x4 | x4 || x4 | x4 | %38
 x4 | x4 | x4 | x4 | x4 | x4 | x4 | x4 | x4 | z [G,CE][G,CE] x | x4 | x4 | x4 | x4 || x4 | x4 | %54
 x4 | x4 | x4 | x4 | x4 | x4 | x4 | x4 | x4 | z [G,CE][G,CE] x | x4 | x4 | x4 | x4 || x4 | x4 | %70
 x4 | x4 | x4 | x4 | x4 | x4 | x4 | x4 | x4 | x4 | x4 | x4 | x4 | x4 ||[K:Eb] x4 | x4 | x4 | x4 || %88
 x4 | x4 | x4 | x4 | x4 | x4 | x4 | x4 | x4 | x4 | x4 | x4 || x4 | x4 | x4 | x4 | x4 | x4 | x4 | %107
 x4 | x4 | x4 | x4 | x4 | x4 | x4 | x4 | x4 ||[K:Bb] x4 | x4 | x4 | x4 || x4 | x4 | x4 | x4 | x4 | %125
 x4 | x4 | x4 | x4 | x4 | x4 | x4 | x4 | x4 | x4 | x4 |] %136

